css/img/labyrinth.svg

<svg viewBox="0 0 1399 1399" xmlns="http://www.w3.org/2000/svg" fill-rule="evenodd" clip-rule="evenodd" stroke-linejoin="round" stroke-miterlimit="2"><path fill="none" d="M0 0h1398.81v1398.81H0z"/><path d="M64 1H18.591a1 1 0 000 2h9.97v11.778H16.785V8.889a1 1 0 00-2 0v6.889a1 1 0 001 1h12.776v11.778h-5.889a1 1 0 00-1 1v5.888h-4.887V23.667h5.887a1 1 0 100-2h-6.887a1 1 0 00-1 1v12.777H9.897V15.778a1 1 0 00-2 0V32H3V3h4.654a1 1 0 100-2H2a1 1 0 00-1 1v62a1 1 0 001 1h62a1 1 0 001-1v-8.17a1 1 0 00-2 0V63H51.224v-5.889a1 1 0 00-1-1H37.448v-4.944h5.888a1 1 0 001-1V30.556h4.888v19.666a1 1 0 001 1h5.888v5.889a1 1 0 002 0v-6.889a1 1 0 00-1-1h-5.888V37.444h5.888a1 1 0 001-1V15.778a1 1 0 00-1-1H44.336V8.889a1 1 0 00-2 0v5.889h-5.888a1 1 0 00-1 1v6.889a1 1 0 002 0v-5.889h11.776v4.889h-5.888a1 1 0 100 2h6.888a1 1 0 001-1v-5.889h4.888v18.666h-4.888v-5.888a1 1 0 00-1-1h-6.888a1 1 0 00-1 1v19.611H29.561a1 1 0 100 2h5.887v4.944H22.672a1 1 0 000 2h26.552V63H16.785v-5.889a1 1 0 00-2 0V63H3V51.167h4.897v5.944a1 1 0 002 0V44.333h4.888v5.889a1 1 0 001 1h6.887a1 1 0 100-2h-5.887V37.444h4.887v5.889a1 1 0 001 1h6.889a1 1 0 000-2h-5.889V30.556h11.776v4.888h-5.887a1 1 0 100 2h5.887v5.889a1 1 0 002 0V29.556a1 1 0 00-1-1h-5.887V9.889h5.887a1 1 0 100-2h-5.887V3h18.663v5.889a1 1 0 002 0V3H63v4.889h-5.888a1 1 0 000 2H63v32.444h-5.888a1 1 0 000 2H63v2.455a1 1 0 002 0V2a1 1 0 00-1-1zM8.897 42.333a1 1 0 00-1 1v5.834H3V34h4.897v2.444a1 1 0 001 1h5.888v4.889H8.897z" fill="url(#_Linear1)" fill-rule="nonzero" transform="rotate(-30 933.548 293.857) scale(16)"/><defs><linearGradient id="_Linear1" x1="0" y1="0" x2="1" y2="0" gradientUnits="userSpaceOnUse" gradientTransform="matrix(64 0 0 64 1 33)"><stop offset="0" stop-color="#f9f9f9"/><stop offset=".2" stop-color="#f5f5f5"/><stop offset=".42" stop-color="#f1f1f1"/><stop offset="1" stop-color="#efefef"/></linearGradient></defs></svg>

<?xml version="1.0" encoding="UTF-8" standalone="no"?>
<!DOCTYPE svg PUBLIC "-//W3C//DTD SVG 1.1//EN" "http://www.w3.org/Graphics/SVG/1.1/DTD/svg11.dtd">
<svg width="100%" height="100%" viewBox="0 0 1399 1399" version="1.1" xmlns="http://www.w3.org/2000/svg" xmlns:xlink="http://www.w3.org/1999/xlink" xml:space="preserve" xmlns:serif="http://www.serif.com/" style="fill-rule:evenodd;clip-rule:evenodd;stroke-linejoin:round;stroke-miterlimit:2;">
    <g id="Artboard1" transform="matrix(1,0,0,1,0,512)">
        <rect x="0" y="-512" width="1398.81" height="1398.81" style="fill:none;"/>
        <g transform="matrix(13.8564,-8,8,13.8564,-21.8564,-5.85641)">
            <path d="M64,1L18.591,1C18.039,1 17.591,1.448 17.591,2C17.591,2.552 18.039,3 18.591,3L28.561,3L28.561,14.778L16.785,14.778L16.785,8.889C16.785,8.337 16.337,7.889 15.785,7.889C15.233,7.889 14.785,8.337 14.785,8.889L14.785,15.778C14.785,16.33 15.233,16.778 15.785,16.778L28.561,16.778L28.561,28.556L22.672,28.556C22.12,28.556 21.672,29.004 21.672,29.556C21.672,36.378 21.672,27.93 21.672,35.444L16.785,35.444L16.785,23.667L22.672,23.667C23.225,23.667 23.672,23.219 23.672,22.667C23.672,22.114 23.225,21.667 22.672,21.667L15.785,21.667C15.233,21.667 14.785,22.114 14.785,22.667L14.785,35.444L9.897,35.444L9.897,15.778C9.897,15.226 9.449,14.778 8.897,14.778C8.345,14.778 7.897,15.226 7.897,15.778L7.897,32L3,32L3,3L7.654,3C8.207,3 8.654,2.552 8.654,2C8.654,1.448 8.206,1 7.654,1L2,1C1.448,1 1,1.448 1,2L1,64C1,64.552 1.448,65 2,65L64,65C64.552,65 65,64.552 65,64L65,55.83C65,55.278 64.552,54.83 64,54.83C63.448,54.83 63,55.278 63,55.83L63,63L51.224,63L51.224,57.111C51.224,56.559 50.776,56.111 50.224,56.111L37.448,56.111L37.448,51.167L43.336,51.167C43.888,51.167 44.336,50.719 44.336,50.167L44.336,30.556L49.224,30.556L49.224,50.222C49.224,50.774 49.672,51.222 50.224,51.222L56.112,51.222L56.112,57.111C56.112,57.663 56.56,58.111 57.112,58.111C57.664,58.111 58.112,57.663 58.112,57.111L58.112,50.222C58.112,49.67 57.664,49.222 57.112,49.222L51.224,49.222L51.224,37.444L57.112,37.444C57.664,37.444 58.112,36.997 58.112,36.444L58.112,15.778C58.112,15.226 57.664,14.778 57.112,14.778L44.336,14.778L44.336,8.889C44.336,8.337 43.888,7.889 43.336,7.889C42.784,7.889 42.336,8.337 42.336,8.889L42.336,14.778L36.448,14.778C35.896,14.778 35.448,15.226 35.448,15.778L35.448,22.667C35.448,23.219 35.896,23.667 36.448,23.667C37,23.667 37.448,23.219 37.448,22.667L37.448,16.778L49.224,16.778L49.224,21.667L43.336,21.667C42.784,21.667 42.336,22.114 42.336,22.667C42.336,23.219 42.784,23.667 43.336,23.667L50.224,23.667C50.776,23.667 51.224,23.219 51.224,22.667L51.224,16.778L56.112,16.778L56.112,35.444L51.224,35.444L51.224,29.556C51.224,29.004 50.776,28.556 50.224,28.556L43.336,28.556C42.784,28.556 42.336,29.004 42.336,29.556L42.336,49.167L29.561,49.167C29.008,49.167 28.561,49.615 28.561,50.167C28.561,50.719 29.008,51.167 29.561,51.167L35.448,51.167L35.448,56.111L22.672,56.111C22.12,56.111 21.672,56.559 21.672,57.111C21.672,57.663 22.12,58.111 22.672,58.111L49.224,58.111L49.224,63L16.785,63L16.785,57.111C16.785,56.559 16.337,56.111 15.785,56.111C15.233,56.111 14.785,56.559 14.785,57.111L14.785,63L3,63L3,51.167L7.897,51.167L7.897,57.111C7.897,57.663 8.345,58.111 8.897,58.111C9.449,58.111 9.897,57.663 9.897,57.111L9.897,44.333L14.785,44.333L14.785,50.222C14.785,50.774 15.233,51.222 15.785,51.222L22.672,51.222C23.225,51.222 23.672,50.774 23.672,50.222C23.672,49.67 23.225,49.222 22.672,49.222L16.785,49.222L16.785,37.444L21.672,37.444L21.672,43.333C21.672,43.885 22.12,44.333 22.672,44.333L29.561,44.333C30.113,44.333 30.561,43.885 30.561,43.333C30.561,42.781 30.113,42.333 29.561,42.333L23.672,42.333C23.672,42.182 23.672,30.66 23.672,30.556L35.448,30.556L35.448,35.444L29.561,35.444C29.008,35.444 28.561,35.892 28.561,36.444C28.561,36.997 29.008,37.444 29.561,37.444L35.448,37.444L35.448,43.333C35.448,43.885 35.896,44.333 36.448,44.333C37.001,44.333 37.448,43.885 37.448,43.333L37.448,29.556C37.448,29.004 37.001,28.556 36.448,28.556L30.561,28.556L30.561,9.889L36.448,9.889C37.001,9.889 37.448,9.441 37.448,8.889C37.448,8.337 37.001,7.889 36.448,7.889L30.561,7.889L30.561,3L49.224,3L49.224,8.889C49.224,9.441 49.672,9.889 50.224,9.889C50.776,9.889 51.224,9.441 51.224,8.889L51.224,3L63,3L63,7.889L57.112,7.889C56.56,7.889 56.112,8.337 56.112,8.889C56.112,9.441 56.56,9.889 57.112,9.889L63,9.889L63,42.333L57.112,42.333C56.56,42.333 56.112,42.781 56.112,43.333C56.112,43.885 56.56,44.333 57.112,44.333L63,44.333L63,46.788C63,47.34 63.448,47.788 64,47.788C64.552,47.788 65,47.34 65,46.788L65,2C65,1.448 64.552,1 64,1ZM8.897,42.333C8.345,42.333 7.897,42.781 7.897,43.333L7.897,49.167L3,49.167L3,34L7.897,34L7.897,36.444C7.897,36.997 8.345,37.444 8.897,37.444L14.785,37.444L14.785,42.333L8.897,42.333Z" style="fill:url(#_Linear1);fill-rule:nonzero;"/>
        </g>
    </g>
    <defs>
        <linearGradient id="_Linear1" x1="0" y1="0" x2="1" y2="0" gradientUnits="userSpaceOnUse" gradientTransform="matrix(64,0,0,64,1,33)"><stop offset="0" style="stop-color:rgb(249,249,249);stop-opacity:1"/><stop offset="0.2" style="stop-color:rgb(245,245,245);stop-opacity:1"/><stop offset="0.42" style="stop-color:rgb(241,241,241);stop-opacity:1"/><stop offset="1" style="stop-color:rgb(239,239,239);stop-opacity:1"/></linearGradient>
    </defs>
</svg>
